public/images/icons/email-alert.svg

<svg xmlns="http://www.w3.org/2000/svg" fill="currentColor" viewBox="0 0 24 24"><path d="m18 8-8 5-8-5V6l8 5 8-5m0-2H2C.9 4 0 4.9 0 6v12c0 1.1.9 2 2 2h16c1.1 0 2-.9 2-2V6c0-1.1-.9-2-2-2m6 3h-2v6h2V7m0 8h-2v2h2v-2Z"/></svg>

<svg xmlns="http://www.w3.org/2000/svg" viewBox="0 0 24 24" fill="currentColor"><path d="M18 8L10 13L2 8V6L10 11L18 6M18 4H2C.9 4 0 4.9 0 6V18C0 19.1 .9 20 2 20H18C19.1 20 20 19.1 20 18V6C20 4.9 19.1 4 18 4M24 7H22V13H24V7M24 15H22V17H24V15Z" /></svg>
